X:1
T:La fille aux cheveux de lin
T:LA FILLE AUX CHEVEUX DE LIN
T:(Préludes I/8)
T:Claude DEBUSSY (1862-1918) Arrangé par Olivér Nagy 
C:Claude DEBUSSY (1862-1918)
%%score 1 { ( 2 4 ) | ( 3 5 6 ) }
L:1/8
Q:1/4=66
M:3/4
K:Gb
V:1 treble transpose=-2 nm="Clarinetto in Si♭"
V:2 treble nm="Pianoforte"
V:4 treble 
V:3 bass 
V:5 bass 
V:6 bass 
V:1
[K:Ab]"^Très calme et doucement expressif"!p!"_sans rigeur" (e2- ec/A/ FA/c/ | %1
 ec/A/ FA/c/ A)(A/F/ | AG/F/ E4- | E4) (FA | B3 e cA/c/ | Be (c2) !tenuto!f2-) | f2!p! (c3 d) | %7
 (e2 ec/A/ FA/c/ | ec/A/ FA/c/ A)(A/F/ | AG/F/ E4- | %10
[Q:1/4=60]"^Cédez_ _ _ _ _ _ _ _ _" E4) z!p![Q:1/4=72]"^Mouvt" (C/E/ | F!<(!A/B/ de fa-!<)! | %12
!p! a!>(!g/f/ e2- e/!>)!d/c/B/) | (A/B/c- c/B/A- A/G/F- | F/E/D-!<(! D/E/_G/B/ d/e/_g/b/)!<)! | %15
!p! (!tenuto!d'!>(!c'/b/ a4)!>)! |!p! (c'b/a/ f2-!>(! fe/d/)!>)! |!p! (cB/A/ F2- F)(F/=D/ | %18
[Q:1/4=78]"^Un peu animé" F4) (!tenuto!=DF/D/ | F4) (=df/d/ | f4)!mf! (f'2- | %21
 f'(3e'/f'/e'/ c')!>(!(b- b/a/g/f/)!>)! |!p! (f(3e/f/e/[Q:1/4=70]"^Cédez _ _ _ _" c) (B2 A/B/) | %23
!pp![Q:1/4=72]"^Mouvt (sans lourdeur)" (c>A FA ce | cA F2 A2) |!p! (c>A ce fa | %26
[Q:1/4=66]"^Cédez _ _" c'a)!>(! (!tenuto!c2 !tenuto!E2)!>)! | %27
[Q:1/4=72]"^Mouvt" z2 z2!pp! !tenuto!e'2- |"_très doux" e'2- (e'c'/a/ fa/c'/ | %29
 e'c'/a/ fa/c'/!<(! a)(a/f/!<)! | a2 g2 f2) | (e3!>(! d cB)!>)! | %32
!pp![Q:1/4=60]"^Murmuré et en retenant peu à peu" (A/B/c- c/B/A- A/G/F- | F/E/F- F/E/F- F/E/F- | %34
 (F/).A/.B/.d/!p! .e/.f/.a/.b/ (3.d'.e'.f' |!pp! a6-) | a6- | a6- | a2 z2 z2 |] %39
V:2
 z6 | z2 z2 z!p! [G,C] | [G,B,]6- | [G,B,]4 z2 | ([A,DF]3 [B,DF] [B,EG][B,DG] | %5
 [A,DF]2 [B,=DF]2 [B,EB]2- | [B,EB]2) z2 z2 | (D4 E2 | D2 E2) G2- | G2 (D2- D/C/B,/A,/ | G,) z4 z | %11
!p!!<(! !arpeggio![A,CD]6!<)! |!p!!>(! [DGB]4 z2!>)! |!p! ([CE]>[DF] [CE]>[B,D] [A,C]>[G,B,] | %14
 [_F,A,]6) |!p! [Gce]6 | [EGc]2 [A,CF]4 |!p! [G,C]2!>(! E4!>)! | [=G,B,E]4 A,2 | [=G,B,E]4!p! F2 | %20
 e!<(!(B/=c/ e/f/=g/b/)!<)!!mf! [e_g_c']2- | ([egc'][dfa] [Beg])!>(! !tenuto![A=ce]3!>)! | %22
!p! ([EG_c][FA] [EG]) ([EA]2 G/F/) |!pp! ([B,E]>[G,D] [E,B,][G,D] [B,E][DG] | %24
 [B,E][G,D] [E,B,]2 C2) |!p! ([B,E]>[G,D] [B,E][DG] [EB][Gd] | %26
 [Be][Gd])!>(! (!tenuto![CB]2 !tenuto![A,D]2)!>)! |!pp! [G,CEG]6- | [G,CEG]6 |!<(! (G4 A2!<)! | %30
 [B,EGB]6) |!>(! [B,DG]6!>)! |!pp! (E>F E>D C>B, | A,>B, C>B, A,>B,) | %34
 z/ (.D/.E/.G/ .A/!p!.c/.d/.e/ (3.g.a.c') |!pp! [gbd'g']6- | [gb-d'-g']6 |!>(! (([bd']6!>)! | %38
 (([bd']2)) z4)) |] %39
V:3
 z6 | z2 z2 z ([C,E,] | [G,,D,]6-) | [G,,D,]4 z2 | (D,3 B,, E,G, | D,2 [B,,F,]2 [E,,B,,=G,]2- | %6
 [E,,B,,G,]2) z2 z2 | (G,4 A,2 | G,2 A,2) (E,2 | D,6-) | D,6 | (!arpeggio![G,,,D,,G,,D,]6 | %12
 G,,,4) z2 | (G,>A, G,>F, E,>D,) | (C,6 | [G,CE]6) | (A,2 D,4) | (A,,2 B,,,4) | E,,6 | E,,6 | %20
 E(B,/=C/[K:treble] E/F/=G/B/) (!tenuto![_CE_G_c]2- | ([CEGc])[DFA] [EG])[K:bass] z A,,2 | %22
 ([_C,G,_C][D,A,D] [E,B,]) [A,=C]2 D,- | ([G,,D,]>[E,,B,,] [D,,G,,][E,,B,,] [G,,D,][B,,E,] | %24
 [G,,D,][E,,B,,] [C,,G,,]2 [D,,A,,]2) | ([G,,D,]>[B,,E,] [D,G,][E,B,] [G,D][B,E] | %26
 [DG][B,E]) (!tenuto![A,,E,G,]2 !tenuto![D,F,]2) | [C,,G,,C,]6- | [C,,-G,,C,]6 | [C,,G,CE]6 | %30
 ([E,,B,,G,]6 | [G,,D,]6) | ([G,C]>[A,D] [G,C]>[F,B,] [E,A,]>[D,G,] | %33
 [C,F,]>[D,G,] [E,A,]>[D,G,] [C,F,]>[D,G,]) | [E,A,C]6 |[K:treble] !arpeggio![G,DGBd]6- | %36
 (([G,DGBd]6 | (((([G,DGBd]6-)) | [G,DGBd]2)))) z4 |] %39
V:4
 x6 | x6 | x6 | x6 | x6 | x6 | x6 | B,4 =C2 | B,2 =C2 [B,D][A,_C] | ([G,B,]6 | [B,D]4) x2 | x6 | %12
 x6 | x6 | x6 | x6 | x6 | x6 | x5/2 (F,/=G,/B,/- [F,B,]2) | z!<(! B,/=C/ E/F/=G/B/-!<)! [AB]2 | %20
 [=GB]4 x2 | x6 | x5 _C | x6 | x6 | x6 | x6 | x6 | x6 | x6 | x6 | x6 | x6 | x6 | x6 | x6 | x6 | %37
 !arpeggio!!tenuto![gg']2 z2 z2 | x6 |] %39
V:5
 x6 | x6 | x6 | x6 | x6 | x6 | x6 | _F,4 G,2 | _F,2 G,2 z (D,, | G,,6-) | G,,6 | x6 | %12
 [D,G,B,]4 G,,,2 | x6 | z2 !tenuto!G,,,4 |{/C,,} C,,6 | x6 | E,2 D, z !tenuto!B,,2 | %18
 x B,,/=C,/ E,/ x7/2 | z (B,,/=C,/ E,/F,/=G,/B,/- [E,B,=C]2) | [E,B,]2[K:treble] x4 | %21
 x3[K:bass] [E,A,=CE]3 | x6 | x6 | x6 | x6 | x6 | x6 | x6 | x6 | x6 | x6 | x6 | x6 | x6 | %35
[K:treble] x6 | !arpeggio!!tenuto![Dd]2 z2 z2 | x6 | x6 |] %39
V:6
 x6 | x6 | x6 | x6 | x6 | x6 | x6 | x6 | x6 | x6 | x (F,/E,/ D,2- D,/C,/B,,/A,,/) | x6 | x6 | x6 | %14
 x6 | x6 | x6 | x2 [F,A,B,]4 | z (B,,- B,,4) | x6 | x2[K:treble] x4 | x3[K:bass] x3 | x6 | x6 | %24
 x6 | x6 | x6 | x6 | x6 | x6 | x6 | x6 | x6 | x6 | x6 |[K:treble] x6 | x6 | x6 | x6 |] %39

